packages/icons/svg/Fill/triangle-up.svg

<svg width="24" height="24" viewBox="0 0 24 24" fill="none" xmlns="http://www.w3.org/2000/svg">
<g id="Icon/Fill/triangle-up">
<path id="Mask" fill-rule="evenodd" clip-rule="evenodd" d="M16.2129 16H7.7869C7.1139 16 6.5069 15.598 6.2019 14.951C5.8569 14.218 5.9569 13.351 6.4599 12.741L10.6739 7.64199C11.3459 6.82499 12.6539 6.82499 13.3259 7.64199L17.5389 12.74C18.0429 13.351 18.1439 14.218 17.7979 14.951C17.4929 15.598 16.8859 16 16.2129 16Z" fill="#000000"/>
</g>
</svg>

<svg fill="none" height="24" viewBox="0 0 24 24" width="24" xmlns="http://www.w3.org/2000/svg"><path clip-rule="evenodd" d="m16.2129 16h-8.426c-.673 0-1.28-.402-1.585-1.049-.345-.733-.245-1.6.258-2.21l4.214-5.09895c.672-.817 1.98-.817 2.652 0l4.213 5.09795c.504.611.605 1.478.259 2.211-.305.647-.912 1.049-1.585 1.049" fill="#6b7280" fill-rule="evenodd"/></svg>
